X:1
T:Sacramentum Unitatis, 10.10.10.10.10.10
T:Charles H. Lloyd, 1885
T:Sacramentum Unitatis, 10.10.10.10.10.10
T:Public Domain
C:Charles H. Lloyd, 1885
Z:Public Domain
%%score ( 1 2 ) ( 3 4 )
L:1/8
M:6/4
K:Eb
V:1 treble 
V:2 treble 
V:3 bass 
V:4 bass 
V:1
 [EG]4 [DF]2 [EG]2 [EA]2 [DF]2 | [EB]3 [DE] [CE]2 [DF]2 [EG]4 | z2 [EG]2 [Ec]2 [Fc]2 [B,B]2 [DG]2 | %3
 [CE]3 [CE] [CF]2 [EG]2 [DF]4 | [_DB]4 [DA]2 [DG]2 [DF]2 [DG]2 | [C=E]3 [CE] [CF]2 [CG]2 [CA]4 | %6
 [F_d]4 [Fc]2 [FB]2 [F=A]2 [FB]2 | [EG]3 [EG] [EA]2 [EB]2 [Ec]4 | [Ee]4 [Ec]2 [=EB]2 [FA]2 [Fc]2 | %9
 [B,B]2 E2 [EG]3 [DF] [DF]4 | E4 [EF]4 [_DG]4 | [CA]6 [CG]2 [CF]4 | F2 E2 [B,D]6 [B,E]2 | %13
 [B,E]12 |] %14
V:2
 x12 | x12 | x12 | x12 | x12 | x12 | x12 | x12 | x12 | x2 E2 x8 | E4 x8 | x12 | C4 x8 | x12 |] %14
V:3
 [E,B,]4 [A,B,]2 [G,B,]2 [F,C]2 [A,B,]2 | [G,B,]3 [G,B,] [A,C]2 [F,A,]2 [E,B,]4 | %2
 z2 [E,B,]2 [A,C]2 [A,D]2 [G,E]2 [B,,B,]2 | [C,G,]3 [C,B,] [F,=A,]2 [F,A,]2 [B,,B,]4 | %4
 [B,,F,]4 [B,,F,]2 [B,,G,]2 [B,,A,]2 [B,,G,]2 | [C,B,]3 [C,B,] [D,A,]2 [=E,G,]2 F,4 | %6
 [_D,A,]4 [D,=A,]2 [D,B,]2 [D,C]2 [D,B,]2 | [E,_D]3 [E,D] [F,C]2 [G,B,]2 A,4 | %8
 [G,B,]4 A,2 [G,B,]2 [F,C]2 [A,D]2 | [G,E]2 [=A,C]2 B,3 [B,,B,] [B,,B,]4 | %10
 [C,G,]4 [C,A,]4 [B,,B,]4 | [A,,E,]6 [A,,=E,]2 [A,,F,]4 | [F,,A,]4 [B,,A,]6 [E,G,]2 | [E,G,]12 |] %14
V:4
 x12 | x12 | x12 | x12 | x12 | x8 F,4 | x12 | x8 A,4 | x4 A,2 x6 | x4 B,3 x5 | x12 | x12 | x12 | %13
 x12 |] %14

